X: 32378
T: Pipe On The Hob, The
R: jig
M: 6/8
K: Dmixolydian
B^c|:d^cd ABG|FA~D3F|~E3 cBc|EED D3|
~d2B cBA|BAG AGF|~E3 cBc|1 EED DB^c:|2 EED De/f/g||
~f3 dB/^c/d|fzf d^cd|edB c2d|ede aag|
~f3 dB/^c/d|fzf d^cd|ede age|edc de/f/g|
f=f^f dB/^c/d|~f3 dB/^c/d|edB c2d|~e3 age|
fd/e/f ge/f/g|agf e2a|fed eaf|edc dA/B/^c||

